X:319
T:When Cloe
M:3/4
L:1/8
Q:1/4=150
K:G
GG | G2 D2 BB | B2 A2 Bc | d2 c2 B2 | A4 Bc |
d2 A2 AB | A2 D2 E2 | D6- | D4 GG |
G2 D2 BB | B2 A2 Bc | d2 c2 B2 | A4 Bc |
d2 A2 AB | A2 D2 E2 | D6- | D4 GA ||
F2 AFAd | A2 FE D2 | E2 c2 B2 | A4 Bc |
d2 G2 AB | A2 D2 F2 | G2-GFGA | G4 GA |
F2 AFAd | A2 FE D2 | E2 c2 B2 | A4 Bc |
d2 G2 AB | A2 D2 F2 | G3 G G2 | G4 ||
